packages/flat-components/src/components/CloudStorage/CloudStorageFileTitle/icons/vf.svg

<?xml version="1.0" encoding="UTF-8"?>
<svg width="22px" height="22px" viewBox="0 0 22 22" version="1.1" xmlns="http://www.w3.org/2000/svg" xmlns:xlink="http://www.w3.org/1999/xlink">
    <title>矩形备份 88</title>
    <g id="多窗口" stroke="none" stroke-width="1" fill="none" fill-rule="evenodd" stroke-linecap="round" stroke-linejoin="round">
        <g id="文件格式（图标）" transform="translate(-128.000000, -172.000000)" stroke="#FF9933">
            <g id="编组-15备份-12" transform="translate(128.000000, 172.000000)">
                <path d="M15.4039155,5.25 L10.8770007,17.25 L6.30389829,17.25 L1.77698352,5.25 L6.72854062,5.25 L8.59021608,10.1881809 L10.4536121,5.25 L15.4039155,5.25 Z M18.6156152,9.40853659 L17.0305418,13.6280211 L12.0848494,13.6280211 L13.6729135,9.40853659 L18.6156152,9.40853659 Z M20.2219433,5.25 L18.6368699,9.46948454 L13.6911775,9.46948454 L15.2792416,5.25 L20.2219433,5.25 Z" id="形状结合"></path>
            </g>
        </g>
    </g>
</svg>

<svg width="22" height="22" xmlns="http://www.w3.org/2000/svg"><path d="m15.404 5.25-4.527 12H6.304l-4.527-12h4.952l1.861 4.938 1.864-4.938h4.95Zm3.212 4.159-1.585 4.219h-4.946l1.588-4.22h4.943Zm1.606-4.159-1.585 4.22H13.69l1.588-4.22h4.943Z" stroke="#F93" fill="none" stroke-linecap="round" stroke-linejoin="round"/></svg>
